www/assets/icons/wb_auto.svg

<svg width="24" height="24" viewBox="0 0 24 24" xmlns="http://www.w3.org/2000/svg" fill='currentColor'><path d="M6.95001 12.65H9.25001L8.10001 9L6.95001 12.65ZM22.1 7L20.9 13.29L19.4 7H17.8L16.31 13.29L15.1 7H14.34C12.87 5.17 10.63 4 8.10001 4C3.68001 4 0.100006 7.58 0.100006 12C0.100006 16.42 3.68001 20 8.10001 20C11.23 20 13.94 18.19 15.25 15.57L15.35 16H17.1L18.6 9.9L20.1 16H21.85L23.9 7H22.1ZM10.4 16L9.70001 14H6.50001L5.80001 16H3.90001L7.10001 7H9.10001L12.3 16H10.4Z"/></svg>

<svg xmlns="http://www.w3.org/2000/svg" width="24" height="24" viewBox="0 0 24 24" fill='currentColor'><path d="M6.95 12.65h2.3L8.1 9zM22.1 7l-1.2 6.29L19.4 7h-1.6l-1.49 6.29L15.1 7h-.76c-1.47-1.83-3.71-3-6.24-3-4.42 0-8 3.58-8 8s3.58 8 8 8c3.13 0 5.84-1.81 7.15-4.43l.1.43h1.75l1.5-6.1 1.5 6.1h1.75l2.05-9zm-11.7 9-.7-2H6.5l-.7 2H3.9l3.2-9h2l3.2 9z"/></svg>
